X: 23264
T: Leaving Lismore
R: waltz
M: 3/4
K: Dmajor
|:D3 E F2|A4 d2|B2 A2 F2|A2 F2 E2|D3/2E/F|A4 A2|B2 A2 F2|E4 A,2|
D3 E F2|A4 d2|B2 A2 F2|A6|A2 B2 d2|F4 E2|FE D4|D6:|
d3 c d2|B4 A2|B2 A2 F2|A6|d3 c d2|B4 A2|B2 A2 F2|E6|
d3 c d2|B4 A2|B2 A2 F2|A6|A2 B2 d2|F4 E2|FE D4|D6|
d3 c d2|B4 A2|B2 A2 F2|A6|d3 c d2|B4 A2|B2 A2 F2|E6|
D3 E F2|A4 d2|B2 A2 F2|A6|A2 B2 d2|F4 E2|FE D4|D6||
D3/2E/F A2d|BAF AFE|D3/2E/F A2A|BAF E2A,|
D3/2E/F A2d|BAF A3|ABd F2E|F/E/D2 D3:|
d3/2c/d B2A|BAF A3|d3/2c/d B2A|BAF E3|
d3/2c/d B2A|BAF A3|ABd F2E|F/E/D2 D3|
d3/2c/d B2A|BAF A3|d3/2c/d B2A|BAF E3|
D3/2E/F A2d|BAF A3|ABd F2E|F/E/D2 D3||

